src/android-checkbox-outline-blank.svg

<?xml version="1.0" encoding="utf-8"?>
<!-- Generated by IcoMoon.io -->
<!DOCTYPE svg PUBLIC "-//W3C//DTD SVG 1.1//EN" "http://www.w3.org/Graphics/SVG/1.1/DTD/svg11.dtd">
<svg version="1.1" xmlns="http://www.w3.org/2000/svg" xmlns:xlink="http://www.w3.org/1999/xlink" width="512" height="512" viewBox="0 0 512 512">
<path fill="#000000" d="M405.333 106.667v298.666h-298.666v-298.666h298.666zM405.333 64h-298.666c-23.469 0-42.667 19.198-42.667 42.667v298.666c0 23.469 19.198 42.667 42.667 42.667h298.666c23.469 0 42.667-19.198 42.667-42.667v-298.666c0-23.469-19.198-42.667-42.667-42.667v0z"></path>
</svg>

<?xml version="1.0" encoding="utf-8"?>
<!-- Generator: Adobe Illustrator 16.2.1, SVG Export Plug-In . SVG Version: 6.00 Build 0)  -->
<!DOCTYPE svg PUBLIC "-//W3C//DTD SVG 1.1//EN" "http://www.w3.org/Graphics/SVG/1.1/DTD/svg11.dtd">
<svg version="1.1" id="Layer_1" xmlns="http://www.w3.org/2000/svg" xmlns:xlink="http://www.w3.org/1999/xlink" x="0px" y="0px"
	 width="512px" height="512px" viewBox="0 0 512 512" enable-background="new 0 0 512 512" xml:space="preserve">
<g id="Icon_25_">
	<g>
		<path d="M405.333,106.667v298.666H106.667V106.667H405.333 M405.333,64H106.667C83.198,64,64,83.198,64,106.667v298.666
			C64,428.802,83.198,448,106.667,448h298.666C428.802,448,448,428.802,448,405.333V106.667C448,83.198,428.802,64,405.333,64
			L405.333,64z"/>
	</g>
</g>
</svg>
